X:1
T:Veu le grief mal
T:Pierre de Villiers
T:Source: Livre V de 25 chansons nouvelles à 4 parties---Paris---P.Attaingnant---1540. Editor : André Vierendeels (23/09/18) Notes : Original clefs : G2, C2, C3, C4 Original note values have been halved Editorial accidentals above the staff Square brackets indicate ligatures
T:Veu le grief mal
T:©
T:©
T:©
T:©
C:Pierre de Villiers
Z:©
%%score [ 1 2 [ 3 4 ] ]
L:1/8
Q:1/4=120
M:2/2
K:C
V:1 treble nm="Soprano" snm="S"
V:2 treble nm="Alto" snm="A"
V:3 treble-8 nm="Tenor 1" snm="T 1"
V:4 treble-8 nm="Tenor 2" snm="T 2"
V:1
 A4 AGAB | c2 d4 cB | c4 z4 | z2 e2 f2 f2 | e3 d c2 AB | cd e3 d d2- | d2 c2 d4 | z2 A2 A2 A2 | %8
w: Veu le _ _ _|_ gri- ef _|mal|que lon- gue-|ment _ _ i'en- *|* * du- * *|* * re,|que lon- gue-|
 c2 c2 B4 | A8 | z2 e2 f2 f2 | e3 d c2 AB | cd e3 d d2- |"^#" d2 c2 d4 | A6 c2- | cB A4 G2 | %16
w: ment i'en- du-|re,|que lon- gue-|ment _ _ i'en- *|* * du- * *|* * re,|par faulx|_ _ _ ra-|
 A4 z2 A2 | B2 c2 d2 e2 | A2 c3 B B2- | BA A4 G2 | A4 e4- | e2 d2 c4 | B4 z2 e2 | f2 d2 edcB | %24
w: port d'ung|lan- gard en- vy-|eux, en- * *|* * * vy-|eux, ung|_ iour se-|ra que|de cel- le _ _ _|
 A2 d4 c2 | d2 AB cd e2 | c2 f3 e e2- | e2 d2 e4 | z2 A2 AGAB | c2 d4 cB | c4 z4 | z2 e2 f2 f2 | %32
w: _ les _|yeulx [les _ _ _ _|_ _ _ _|* * yeulx]|au- ront _ _ _|_ pi- ty- *|é|de ma pei-|
 e3 d c2 AB | cd e4 d2- | d2 c2 d4 | z2 A2 A2 A2 | c2 c2 B4 | A8 | z2 e2 f2 f2 | e3 d c2 AB | %40
w: ne _ _ trop _|_ _ du- *|* * re,|de ma pei-|ne trop du-|re,|de ma pei-|ne _ _ trop _|
 cd e4 d2- |"^#" d2 c2 d4- | d8 |] %43
w: _ _ du- *|* * re.|_|
V:2
 D6 C2 | F4 E4- | E4 z2 A2 | B2 A2 FGAB | c3 B A2 F2 | G2 A4 G2 | A8 | z2 E2 F2 F2 | EDEF G2 G2 | %9
w: Veu le|grief mal|_ que|lon- gue- ment _ _ _|_ _ _ i'en-|du- * *|re,|que lon- gue-|ment _ _ _ _ i'en-|
 F2 ED E2 F2 | E4 z2 A2 | c2 c2 A4- | A2 A2 B2 G2 | A4 F2 D2 | F3 E/D/ CB,CD | E2 F2 E4- | E8 | %17
w: du- * * * *|re, que|lon- gue- ment|_ i'en- du- *|* re, par|faulx _ _ _ _ _ _|_ ra- port|_|
 z2 E2 D2 C2 | F2 A4 G2 | F2 D2 E4- | E8 | z4 z2 A2- | A2 G2 F2 E2 | z4 z2 A2 | A3 G F2 E2 | %25
w: d'un lan- gard|en- vy- *|* * eux,|_|ung|_ iour se- ra|que|de _ _ cel-|
 D2 F2 C2 c2 | c4 c2 c2 | A4 A2 E2 | F3 E D2 C2 | F4 E4- | E4 z2 A2 | B2 A2 FGAB | c3 B A2 F2 | %33
w: le les yeulx, que|de cel- le|les yeulx au-|ront _ _ pi-|ty- é|_ de|ma pei- ne _ _ _|_ _ _ trop|
 G2 A4 G2 | A8 | z2 E2 F2 F2 | EDEF G2 G2 | F2 ED E2 F2 | E4 z2 A2 | c2 c2 A4- | A2 A2 B2 G2 | %41
w: du- * *|re,|de ma pei-|ne _ _ _ _ trop|du- * * * *|re, de|ma pei- ne|_ trop du- *|
 A4 F4- | F8 |] %43
w: * re.|_|
V:3
 z8 | z4 z2 A2 | AGAB c2 d2- | d2 c2 d4 | z2 e2 f2 f2 | e2 c2 d3 e | f2 e3 d d2- | d2 c2 d2 A2 | %8
w: |Veu|le _ _ _ _ gri-|* ef mal|que lon- gue-|ment i'en- du- *||* * re, i'en-|
 ABcd e4 | A8- | A4 z4 | z2 e2 f2 f2 | e2 c2 d4 | e4 d4- | d4 z4 | z2 A2 c2 B2 | A4 c4 | %17
w: du- * * * *|re,|_|que lon- gue-|ment i'en du-|* re,|_|par faulx ra-|port d'ung|
 d2 c2 f2 e2 | d2 AB cdec | dcBA B4 | A4 z2 a2 | g2 f2 e4- | e2 e2 d2 c2 | f2 f2 e4 | z4 z2 e2 | %25
w: lan- gard en- vyeux,|en- * * * * * *|* * * * vy-|eux,- ung|iour se- ra|_ que de cel-|le les yeulx,|que|
 f2 d2 edcB | A2 a3 g e2 | f4 e4 | z8 | z4 z2 A2 | AGAB c2 d2- | d2 c2 d4 | z2 e2 f2 f2 | %33
w: de cel- le _ _ _|_ les _ _|_ yeulx,||au-|ront _ _ _ _ pi-|* ty- é|de ma pei-|
 e2 c2 d3 e | f2 e3 d d2- | d2 c2 d2 A2 | ABcd e4 | A8- | A4 z4 | z2 e2 f2 f2 | e2 c2 d4 | e4 d4- | %42
w: ne trop du- *||* * re, trop|du- * * * *|re,|_|de ma pei-|ne trop du-|* re.|
 d8 |] %43
w: _|
V:4
 D4 D2 F2- | F2 ED A4 | z2 A2 A2 F2 | G2 A2 DEFG | A4 z4 | z2 A2 B2 B2 | A3 G F2 D2 | A4 D4 | %8
w: Veu le gri-|* ef _ mal|que lon- gue-|ment i'en- du- * * *|re,|que lon- gue-|ment _ _ i'en-|du- re,|
 z4 z2 E2 | FGAB c2 d2- | d2 c2 d4 | A4 z2 D2 | A2 A2 G2 B2 | A4 D4 | z2 D2 F3 E/D/ | C2 D2 E4 | %16
w: i'en-|du- * * * * *||re, que|lon- gue- ment i'en-|du- re,|par faulx _ _|_ ra- port|
 z2 A2 A2 A2 | G2 A2 D2 A2 | F3 G A2 E2 | F4 E4 | z2 A2 AGAB | c2 d2 A4 | z4 z2 A2 | d2 d2 cBAG | %24
w: d'ung lan- gard|en- vy- * *||* eux,|ung iour _ _ _|_ se- ra,|que|de cel- le _ _ _|
 F2 D2 A4 | z4 z2 A2 | c2 F2 c4 | d4 A4 | D4 D2 F2- | F2 ED A4 | z2 A2 A2 F2 | G2 A2 DEFG | A4 z4 | %33
w: _ les yeulx,|que|de cel- le|les yeulx,|au- ront pi-|* ty _ é|de ma pei-|ne trop du- * * *|re,|
 z2 A2 B2 B2 | A3 G F2 D2 | A4 D4 | z4 z2 E2 | FGAB c2 d2- | d2 c2 d4 | A4 z2 D2 | A2 A2 G2 B2 | %41
w: de ma pei-|ne _ _ trop|du- re,|trop|du- * * * * *|* * re,|_ de|ma pei- ne trop|
 A4 D4- | D8 |] %43
w: du- re.|_|

